X:1
T:Lilla mia non ti doler
T:Barbara Strozzi
T:Source : Ariette a voce sola---Venetia---F.Magni---1657. Editor : André Vierendeels (10/05/16).
T:Notes : Original clefs C1, F4 (C3 in m2, m12, m16, m17) Editorial accidentals above the staff Original note values have been halved in 3-beat measures Dotted brackets indicate black notes 
T:Lilla mia non ti doler
T:©
T:©
T:©
C:Barbara Strozzi
Z:©
%%score 1 2
L:1/8
Q:1/4=90
M:4/4
K:Bb
V:1 treble nm="Soprano" snm="S"
V:2 bass nm="MusicXML Part"
V:1
 z2 fd gg f>e | df/e/ dB Gg/f/ ec | AB/c/ dd/e/ fe/d/ cg | c3 B B2 dB | cABc Ac/B/ AF | %5
w: Lil- la mia non ti do-|ler, _ _ _ _ _ _ _ _ _|_ _ _ _ _ _ _ _ _ _ non|ti do- ler se di|sciol- go'i lac- ci'al co- * * * *|
w: Lil- la mia ten- go'in pen-|sier, _ _ _ _ _ _ _ _ _|_ _ _ _ _ _ _ _ _ _ ten-|go'in pen- sier non vo-|ler sof- frir piu pe- * * * *|
 Dd/c/ BA GGcc | cBBA AAfe | dcBA Gc/B/ AF | DG=EA FB/A/ Gc | A2 cA dBGc | A2 fd gg f>e | %11
w: * * * * * * re, è s'il|mio con- stan- te'a- mo- re de- v'e-|stin- to'al fin ca- der _ _ _ _|_ _ _ _ _ _ _ _ _|* de- v'e- stin- to'al fin ca-|der, Lil- la mia non ti do-|
w: * * * * * * ne, ch'il star|sem- pre tra ca- te- ne è da|paz- zo'à dir- t'il ver, _ _ _ _|_ _ _ _ _ _ _ _ _|* è da paz- zo'à dir- t'il|ver: Lil- la mia ten- go'in pen-|
 df/e/ dB Gg/f/ ec | AB/c/ dd/e/ fe/d/ cg | c3 B B4 ::[M:6/4] d2 GBAG ^FD EF GA | BG AB cd e6 | %16
w: ler, _ _ _ _ _ _ _ _ _|_ _ _ _ _ _ _ _ _ _ non|ti do- ler,|la tua gran cru- del- ta, _ _ _ _ _|_ _ _ _ _ _ _|
w: sier, _ _ _ _ _ _ _ _ _|_ _ _ _ _ _ _ _ _ _ ten-|go'in pen- sier,|lo- do la cru- del- ta, _ _ _ _ _|_ _ _ _ _ _ _|
 c2 B2 A2 B2 A4 | G4 Bc d3 fed | c2 c2 cd e2 d3 c | =B3 c AB c2 c3 B | c4 GG c2 cd cB | %21
w: di- sciol- se'il lac- *|cio son u- sci- to fuor d'im-|pac- cio can- te- ro li- ber-|tà quan- to _ sei ca- ra|_ e ben dol- ce _ sei _|
w: che sciol- s'il lac- *|cio e per- che son fuor d'im-|pac- cio can- te- ro li- ber-|tà quan- to _ sei ca- ra|_ e piu dol- ce _ sei _|
 A4 cc f2 fg fe | d3 c d/c/B/A/ A2 G4 | F4 cc f2 ed ef | d3 f B/c/d/c/ d2 c4 | B12 :| %26
w: tu, e ben dol- ce _ sei _|tu se Li- la è a- ma- *|ra, e ben dol- ce _ sei _|tu se Li- la è a- ma- *|ra.|
w: tu, e piu dol- ce _ sei _|tu che Lil- * l'a- * ma- *|ra, e piu dol- ce _ sei _|tu che Lil- * l'a- * ma- *|ra.|
V:2
 B,,4 E,2 F,2 | B,,4 E,E/D/ CA, | F,E,D,C, B,,D,E,B,, | F,E,F,F,, B,,2 B,2 | F,3 =E, F,4 | %5
 B,,B,/A,/ G,F, C,B,,C,D, | =E,C,D,E, F,G,A,F, | B,CDB, C2 F,D, | B,,2 C,2 D,G,/F,/ =E,2 | %9
 F,2 A,,2 B,,2 C,2 | F,2 D,2 E,2 F,2 |"^-natural" B,,4 E,E/D/ CA, | F,E,D,C, B,,D,E,B,, | %13
 F,E,F,F,, B,,4 ::[M:6/4] G,,3 G, F,E, D,6 |"^b" G,E, F,G, A,B, CG, A,B, CD | E2 D2 C2 D6 | %17
 G,4 G,F, B,,3 C, D,2 | E,4 E,C, B,,2 F,4 | G,3 E, F,2 F,2 G,4 | C,4 D,2 E,4 C,2 | %21
 F,4 G,2 A,4 F,2 | B,F, G,A, B,2 C6 | F,4 E,2 D,2 C,4 | B,,4 E,2 F,6 | B,,12 :| %26

